src/images/svg/principles/reliable.svg

<svg width="180" height="180" viewBox="0 0 180 180" fill="none" xmlns="http://www.w3.org/2000/svg">
<path d="M41.9888 90C43.8343 90 45.5213 88.9573 46.3466 87.3067L67.5 45C76.4605 45 83.3933 52.8534 82.2819 61.7447L79.5403 83.6773C79.1207 87.0346 81.7385 90 85.1219 90H129.375C135.588 90 140.625 95.0368 140.625 101.25C140.625 107.463 135.588 112.5 129.375 112.5H123.75C129.963 112.5 135 117.537 135 123.75C135 129.963 129.963 135 123.75 135H118.125C124.338 135 129.375 140.037 129.375 146.25C129.375 152.463 124.338 157.5 118.125 157.5H112.5C118.713 157.5 123.75 162.537 123.75 168.75C123.75 174.963 118.713 180 112.5 180H50.625H28.125C25.0184 180 22.5 177.482 22.5 174.375V95.625C22.5 92.5184 25.0184 90 28.125 90H41.9888Z" fill="#85BDB1" fill-opacity="0.64"/>
<g style="mix-blend-mode:multiply">
<path d="M135 112.5C135 112.5 133.714 110 115.714 100C97.7143 90 91.0714 75 90 68.75V18.75L135 0L180 18.75V68.75C178.929 75 172.286 90 154.286 100C136.286 110 135 112.5 135 112.5Z" fill="#85BDB1"/>
</g>
<path d="M129.326 70.9239L112.5 54.0978L119.543 47.0543L129.326 56.837L152.413 33.75L159.457 40.7935L129.326 70.9239Z" fill="white"/>
<rect y="90" width="16.875" height="90" fill="#85BDB1" fill-opacity="0.64"/>
</svg>

<svg width="180" height="180" fill="none" xmlns="http://www.w3.org/2000/svg"><path d="M41.989 90a4.872 4.872 0 0 0 4.358-2.693L67.5 45c8.96 0 15.893 7.853 14.782 16.745L79.54 83.677A5.625 5.625 0 0 0 85.122 90h44.253c6.213 0 11.25 5.037 11.25 11.25s-5.037 11.25-11.25 11.25h-5.625c6.213 0 11.25 5.037 11.25 11.25S129.963 135 123.75 135h-5.625c6.213 0 11.25 5.037 11.25 11.25s-5.037 11.25-11.25 11.25H112.5c6.213 0 11.25 5.037 11.25 11.25S118.713 180 112.5 180H28.125a5.625 5.625 0 0 1-5.625-5.625v-78.75A5.625 5.625 0 0 1 28.125 90h13.864Z" fill="#85BDB1" fill-opacity=".64"/><path d="M135 112.5s-1.286-2.5-19.286-12.5S91.071 75 90 68.75v-50L135 0l45 18.75v50C178.929 75 172.286 90 154.286 100S135 112.5 135 112.5Z" fill="#85BDB1" style="mix-blend-mode:multiply"/><path d="M129.326 70.924 112.5 54.098l7.043-7.044 9.783 9.783 23.087-23.087 7.044 7.044-30.131 30.13Z" fill="#fff"/><path fill="#85BDB1" fill-opacity=".64" d="M0 90h16.875v90H0z"/></svg>
